X: 33873
T: Red Crow, The
R: reel
M: 4/4
K: Adorian
|:A,2 EA, B,G,G,B,|(3A,A,A, EG FDEG|AGED EA,A,D|ECDC B,G,G,B,|
(3A,A,A, EA, B,G,G,B,|(3A,A,A, EG (3FFD EG|
[1 AGED EA,A,C|DB,G,B, A,2 (3G,A,B,:|2 AGED EA,A,C DB,G,B, A,2 (3AAA||
A2 eA ceAc|eAce dcBA|(3GGG dc BdGB|dGBd edcB|
(3AAA eA ceAc|eAcb ageg|age^c d=fed|(3cBA BG A2 AG|
A2 eA ceAc|eAce dcBA|(3GGG dc BdGB|dGBd edcB|
(3AAA aA gAfA|(3AAA cA BAGB|(3cBA BG AGED|ECDB, CA,B,G,||

